X: 39831
T: Thingemy, The
R: jig
M: 6/8
K: Gmajor
f|:gdB Bcd|ceg gfg|afd cdc|BAG Aaf|
gdB Bcd|cea gfe|dgB cAd|1 BGF G2f:|2 BGF Gga||
|:bgd Bba|gee eag|fdg fdc|Bdg aba|gdB gdB|
ceg aga|bgd cAd|1 BGF Gga:|2 BGF G3||

